X:3
T:Flüebärg-Juiz. 1992  Bb  ABAC
T:Margrit Spichtig-Hofer (6.9.1962)
T:Dirigenten-Notiz  Edi Gasser
C:Unterwalden (CH)
%%partsbox
P:ABAC
R:Naturjodel
M:3/4
L:1/8
K:Bb
[P:A] F F f | d3B AB | d2c2Ff | e3d ce | d3F Ff | d3c Bd | 
d2c2Ff | eF dF dc | B3F Ff | d3B AB | d2c2 Ff | e3d ce | 
d3F Ff | d3c Bd | d2c2 Ff | eF dF dc | B3 || 
L:1/4
M:4/4
[P:B] D>FBc | d2B2 | F/d/F/d/Fd | e>dc2 | E>FAB | 
c2A2 | f>edc | d>cB2 | D>FBc | d2B2 | F/d/F/d/ Fd  | 
e>dc2 | E>FAB | c2A2 | f>edc | B3"_>Teil A"z ||  
L:1/4
M:4/4
[P:C]  G>Ge>d | ceF>F | d>cBd | cBf>d | cFe/d/c | B>cd2 | 
G>Ge>d | ceF>F | d>cBd | cBf>d | cFe/d/c | B3z | 
G>Ge>d | ceF>F | d>cBd | cBf>d | cFe/d/c | B>cd2 |
G>Ge>d | ceF>F | d>cBd | cBf>d | cFe/d/c | B3z |] 
W:
%W:Reihenfolge: A - B - A - C
W:
W:notiert Edi Gasser. Angaben: Margrit Spichtig
W:UJV-Naturjodelsammlung: Code-Nr: 50-02
W:http://www.naturjodler.ch/code 50.htm  (with AUDIO)
%Juni 13, 2018

